X: 13
T: Inter preclarissimas virtutes
N: Derived from Obr2012-Inter_preclarissimas_virtutes.krn
C: Jacob Obrecht
%%abc-version 2.0
%%abcx-abcm2ps-target-version 5.9.1 (29 Sep 2008)
%%abc-creator hum2abc beta
%%abcx-conversion-date 2019/02/17 07:23:44
%%abc-edited-by Jesse Rodin
%%abc-edited-by Jesse Rodin 27/08/2004 ; Megan K. Eagen 20/10/2012
%%abcx-initial-encoding-date 2012/11/12/
%%humdrum-veritas 830220902
%%humdrum-veritas-data 397413204
%%linebreak <none>
%%barnumbers 0
L: 1/4
M: 2/1
Q: 1/2=120
%%staves [1 2 3 4]
V: 1 clef=treble
V: 2 clef=treble-8
V: 3 clef=treble-8
V: 4 clef=bass
K: F
[V:1] G8 | 
[V:2] G8 | 
[V:3] z8 :
[V:4] G,,8 | 
[V:1] G8 | 
[V:2] G8 | 
[V:3] x8 :
[V:4] G,,8 | 
[V:1] F8 | 
[V:2] A8 | 
[V:3] x8 :
[V:4] D,8 | 
[V:1] F4F4- | 
[V:2] A4A4- | 
[V:3] z8 :
[V:4] D,4D,4- | 
[V:1] F4F4 | 
[V:2] A4A4 | 
[V:3] x8 :
[V:4] D,4D,4 | 
[V:1] B8 | 
[V:2] G8 | 
[V:3] x8 :
[V:4] G,,8 | 
[V:1] B4B4- | 
[V:2] G4G4- | 
[V:3] z8 :
[V:4] G,,4G,,4- | 
[V:1] B4A4 | 
[V:2] G4F4 | 
[V:3] x8 :
[V:4] G,,4D,4 | 
[V:1] G8 | 
[V:2] B4c4 | 
[V:3] x8 | 
[V:4] _E,8 | 
[V:1] F8 | 
[V:2] d8 | 
[V:3] z8 :
[V:4] D,8 | 
[V:1] z4F4 | 
[V:2] z4d4 | 
[V:3] x8 :
[V:4] z4D,4 | 
[V:1] G8 | 
[V:2] B8 | 
[V:3] x8 :
[V:4] _E,8 | 
[V:1] G4G4 | 
[V:2] B4G4 | 
[V:3] z8 :
[V:4] _E,4E,4 | 
[V:1] A6A2 | 
[V:2] F6F2 | 
[V:3] x8 :
[V:4] D,6D,2 | 
[V:1] A4B4- | 
[V:2] F4G4 | 
[V:3] x8 :
[V:4] D,4G,4 | 
[V:1] B4A4- | 
[V:2] A8 | 
[V:3] z8 :
[V:4] F,8 | 
[V:1] A4G4 | 
[V:2] B8 | 
[V:3] x8 :
[V:4] G,8 | 
[V:1] A4z2A2- | 
[V:2] A4z2c2- | 
[V:3] x8 | 
[V:4] F,4z2F,2- | 
[V:1] A2A2A4 | 
[V:2] c2c2c4 | 
[V:3] z8 :
[V:4] F,2F,2F,4 | 
[V:1] B4A4 | 
[V:2] d4c2d2 | 
[V:3] x8 :
[V:4] B,,4F,4 | 
[V:1] G2A2D4 | 
[V:2] e2f3ed2- | 
[V:3] x8 :
[V:4] G,2F,2B,4 | 
[V:1] E4D4 | 
[V:2] d2^c2d4 | 
[V:3] z8 :
[V:4] A,4D,4 | 
[V:1] z2D2E2F2 | 
[V:2] z2B2c2d2 | 
[V:3] x8 :
[V:4] z2G,2E,2D,2 | 
[V:1] G4A2F2 | 
[V:2] B4c2d2 | 
[V:3] x8 :
[V:4] E,2G,2F,2D,2 | 
[V:1] B2B4B2 | 
[V:2] d2d4d2 | 
[V:3] z8 :
[V:4] G,2G,4G,2 | 
[V:1] B4B2A2- | 
[V:2] B3cd2c2- | 
[V:3] x8 :
[V:4] G,3F,/E,/D,2F,2- | 
[V:1] A2G4^F2 | 
[V:2] c2B2A4 | 
[V:3] x8 | 
[V:4] F,2G,2D,4 | 
[V:1] G4z2B2- | 
[V:2] G4d4 | 
[V:3] B8- :
[V:4] G,,4G,,4 | 
[V:1] B2B4B2 | 
[V:2] d4d4 | 
[V:3] B8- :
[V:4] G,4G,4 | 
[V:1] G6G2 | 
[V:2] _e6_e2 | 
[V:3] B8 :
[V:4] _E,6E,2 | 
[V:1] F4B4 | 
[V:2] A2B4AG | 
[V:3] d8- :
[V:4] D,8- | 
[V:1] A2B2A2d2- | 
[V:2] F4f4 | 
[V:3] d8- :
[V:4] D,8 | 
[V:1] dc=BA=B4 | 
[V:2] g8 | 
[V:3] d8 :
[V:4] G,8 | 
[V:1] c4z2c2 | 
[V:2] e8 | 
[V:3] c8- :
[V:4] C,8 | 
[V:1] c2c2A4 | 
[V:2] f4f4 | 
[V:3] c8- :
[V:4] F,4F,4 | 
[V:1] G4c4 | 
[V:2] g4e4 | 
[V:3] c8 | 
[V:4] E,4A,4 | 
[V:1] A2d4cB | 
[V:2] f4d3e | 
[V:3] d8- :
[V:4] F,2B,4A,G, | 
[V:1] A2B4AG | 
[V:2] f2B3cde | 
[V:3] d8- :
[V:4] F,2G,4F,E, | 
[V:1] F4z2D2 | 
[V:2] f2d3cBA | 
[V:3] d8 :
[V:4] D,4B,,4 | 
[V:1] E4E4 | 
[V:2] G2g3fe2- | 
[V:3] c8- :
[V:4] C,4C,4- | 
[V:1] E2A4GF | 
[V:2] edcBA4 | 
[V:3] c8- :
[V:4] C,2F,4E,D, | 
[V:1] E4A4 | 
[V:2] G4A4 | 
[V:3] c8 :
[V:4] C,4F,4 | 
[V:1] D4z4 | 
[V:2] F2G4FE | 
[V:3] B8- :
[V:4] B,,8 | 
[V:1] D4D2D2 | 
[V:2] D4z2G2- | 
[V:3] B8- :
[V:4] B,,4B,,4 | 
[V:1] G4F4 | 
[V:2] G2FEF4 | 
[V:3] B8 | 
[V:4] E,4D,4 | 
[V:1] E4z4 | 
[V:2] G8 | 
[V:3] c8- :
[V:4] C,4C,4 | 
[V:1] A4A2A2- | 
[V:2] z2A3Bcd | 
[V:3] c8- :
[V:4] F,4F,4 | 
[V:1] A2G2A4 | 
[V:2] e4f4 | 
[V:3] c8 :
[V:4] C,4F,4 | 
[V:1] B3AGFG2- | 
[V:2] d4z2G2- | 
[V:3] B8 :
[V:4] G,3F,_E,D,E,2- | 
[V:1] G2FED2d2- | 
[V:2] GABcd4 | 
[V:3] G8- :
[V:4] E,2D,C,B,,4 | 
[V:1] dcB4AG | 
[V:2] d4d4- | 
[V:3] G8 :
[V:4] G,,8 | 
[V:1] F2F2E2E2 | 
[V:2] d4e4 | 
[V:3] A8- :
[V:4] D,4C,4 | 
[V:1] F2F2E2A2- | 
[V:2] d4e4 | 
[V:3] A8- :
[V:4] D,4C,4 | 
[V:1] A2G4^F2 | 
[V:2] d8 | 
[V:3] A8 | 
[V:4] D,8 | 
[V:1] G8 | 
[V:2] B3cd2_e2 | 
[V:3] [M:2/1]z8 :
[V:4] G,,8- | 
[V:1] z8 | 
[V:2] d2_e4dc | 
[V:3] x8 :
[V:4] G,,8 | 
[V:1] B8 | 
[V:2] d4d4 | 
[V:3] x8 :
[V:4] z8 | 
[V:1] B4G4- | 
[V:2] _e8 | 
[V:3] z8 :
[V:4] z8 | 
[V:1] G4A4 | 
[V:2] c8 | 
[V:3] x8 :
[V:4] z8 | 
[V:1] F4G4 | 
[V:2] d2B4c2- | 
[V:3] x8 | 
[V:4] z8 | 
[V:1] A4B4 | 
[V:2] c2d4cB | 
[V:3] z8 :
[V:4] z8 | 
[V:1] c3BAGB2- | 
[V:2] A3Bc2d2- | 
[V:3] x8 :
[V:4] z8 | 
[V:1] B2A4G2 | 
[V:2] d2c2B4 | 
[V:3] x8 :
[V:4] z8 | 
[V:1] A4z4 | 
[V:2] A4F2B2 | 
[V:3] z8 :
[V:4] D,8 | 
[V:1] z8 | 
[V:2] A2d4c2 | 
[V:3] x8 :
[V:4] F,4E,4 | 
[V:1] z8 | 
[V:2] d2B4AG | 
[V:3] x8 | 
[V:4] D,8 | 
[V:1] z8 | 
[V:2] A4G4 | 
[V:3] z8 :
[V:4] D,4G,4- | 
[V:1] z8 | 
[V:2] A8 | 
[V:3] x8 :
[V:4] G,4^F,4 | 
[V:1] z8 | 
[V:2] G2d4e2 | 
[V:3] x8 :
[V:4] G,8 | 
[V:1] z8 | 
[V:2] c2d4cB | 
[V:3] z8 :
[V:4] F,4G,4 | 
[V:1] z8 | 
[V:2] c3de2f2- | 
[V:3] x8 :
[V:4] A,4G,2A,2 | 
[V:1] z8 | 
[V:2] fed4^c2 | 
[V:3] x8 | 
[V:4] D,4E,4 | 
[V:1] B8 | 
[V:2] d8 | 
[V:3] B8- :
[V:4] D,4z4 | 
[V:1] B4B4 | 
[V:2] d4d4 | 
[V:3] B8- :
[V:4] G,,4G,,2G,,2 | 
[V:1] G4B4 | 
[V:2] _e4_e2_e2 | 
[V:3] B8 :
[V:4] G,,4G,4 | 
[V:1] A4A4 | 
[V:2] f4f4 | 
[V:3] d8- :
[V:4] D,4D,4 | 
[V:1] A6A2 | 
[V:2] f6f2 | 
[V:3] d8- :
[V:4] D,6D,2 | 
[V:1] F4F4 | 
[V:2] d4d4 | 
[V:3] d8 | 
[V:4] D,4F,4 | 
[V:1] G6E2- | 
[V:2] e8 | 
[V:3] c8- :
[V:4] E,8 | 
[V:1] EFG2C2c2- | 
[V:2] e4f4 | 
[V:3] c8- :
[V:4] C,4F,4- | 
[V:1] c2BAG4 | 
[V:2] F4G4 | 
[V:3] c8 :
[V:4] F,4E,4 | 
[V:1] F8 | 
[V:2] A8 | 
[V:3] d8- :
[V:4] D,8 | 
[V:1] z4B4- | 
[V:2] B4B4 | 
[V:3] d8- :
[V:4] G,8- | 
[V:1] B4B4 | 
[V:2] G4g4 | 
[V:3] d8 | 
[V:4] G,8 | 
[V:1] c6c2 | 
[V:2] e8 | 
[V:3] c8- :
[V:4] A,8 | 
[V:1] A4G2c2- | 
[V:2] f4g4 | 
[V:3] c8- :
[V:4] F,4E,4 | 
[V:1] cBAGA4 | 
[V:2] f8 | 
[V:3] c8 :
[V:4] F,8 | 
[V:1] B4z4 | 
[V:2] d4d2d2 | 
[V:3] B8- :
[V:4] G,4G,2G,2 | 
[V:1] z8 | 
[V:2] e4f2B2- | 
[V:3] B8- :
[V:4] E,4D,2G,2- | 
[V:1] z8 | 
[V:2] B2AGF4 | 
[V:3] B8 | 
[V:4] G,2F,E,D,4 | 
[V:1] G6G2 | 
[V:2] G8 | 
[V:3] c8- :
[V:4] C,8- | 
[V:1] G4G4 | 
[V:2] z8 | 
[V:3] c8- :
[V:4] C,8 | 
[V:1] G4A4 | 
[V:2] z8 | 
[V:3] c8 | 
[V:4] E,4F,4 | 
[V:1] D4G2F2 | 
[V:2] z8 | 
[V:3] B8 :
[V:4] G,3F,_E,2D,2 | 
[V:1] G2B3AG2- | 
[V:2] B8 | 
[V:3] G8- :
[V:4] _E,8 | 
[V:1] G2FED4 | 
[V:2] c4d2B2 | 
[V:3] G8 | 
[V:4] C,4B,,4 | 
[V:1] C2C2F2E2 | 
[V:2] c4c4 | 
[V:3] A8- :
[V:4] A,,8 | 
[V:1] F3GABc2- | 
[V:2] F4c4 | 
[V:3] A8- :
[V:4] D,4C,4 | 
[V:1] cBAG^F4 | 
[V:2] c4d4 | 
[V:3] A8 | 
[V:4] A,,4D,4 | 
[V:1] G4z2B2- | 
[V:2] B4z2d2- | 
[V:3] [M:3/1]z8 :
[V:4] G,,8 | 
[V:1] B2B2B4 | 
[V:2] d2d2d4 | 
[V:3] z8 :
[V:4] z8 | 
[V:1] A2G4F2- | 
[V:2] c4B2A2 | 
[V:3] z8 | 
[V:4] z8 | 
[V:1] F2E2F4 | 
[V:2] G4F4 | 
[V:3] z8 :
[V:4] z8 | 
[V:1] z8 | 
[V:2] B6B2 | 
[V:3] z8 :
[V:4] D,6D,2 | 
[V:1] z8 | 
[V:2] B4c4 | 
[V:3] z8 | 
[V:4] D,4E,4 | 
[V:1] z8 | 
[V:2] A2d4^c2 | 
[V:3] z8 :
[V:4] F,2D,2E,4 | 
[V:1] F4F2F2- | 
[V:2] d4z2B2- | 
[V:3] z8 :
[V:4] D,4z4 | 
[V:1] F2F3GA2 | 
[V:2] B2AGA2F2 | 
[V:3] z8 | 
[V:4] z8 | 
[V:1] G2F4E2 | 
[V:2] G4G4 | 
[V:3] B8 :
[V:4] z8 | 
[V:1] F4z4 | 
[V:2] F4z4 | 
[V:3] d8 :
[V:4] D,3E,F,2G,2 | 
[V:1] z8 | 
[V:2] z4f4 | 
[V:3] c8 | 
[V:4] A,2F,3E,D,C, | 
[V:1] z8 | 
[V:2] g8 | 
[V:3] d8 :
[V:4] B,,2G,,4G,2 | 
[V:1] z8 | 
[V:2] f8 | 
[V:3] c8 :
[V:4] A,G,F,E,F,4 | 
[V:1] d6cB | 
[V:2] d8 | 
[V:3] B8 | 
[V:4] G,4z4 | 
[V:1] A2G4FE | 
[V:2] z8 | 
[V:3] c8 :
[V:4] z8 | 
[V:1] D2B4AG | 
[V:2] z8 | 
[V:3] B4G4 :
[V:4] z8 | 
[V:1] F2G4^F2 | 
[V:2] z4d4 | 
[V:3] A8 | 
[V:4] z4D,4 | 
[V:1] G8- | 
[V:2] B3AB2c2- | 
[V:3] [M:4/2]z8 :
[V:4] _E,8 | 
[V:1] G4z4 | 
[V:2] c2BAG2c2- | 
[V:3] z8 | 
[V:4] C,8 | 
[V:1] z8 | 
[V:2] c2d3cBA | 
[V:3] z8 :
[V:4] F,8 | 
[V:1] z8 | 
[V:2] G2c3BAG | 
[V:3] z8 | 
[V:4] E,8 | 
[V:1] z8 | 
[V:2] F2f3edc | 
[V:3] z8 :
[V:4] A,8 | 
[V:1] z8 | 
[V:2] B4A4- | 
[V:3] z8 | 
[V:4] G,4F,4 | 
[V:1] G8 | 
[V:2] A4G4 | 
[V:3] B8 :
[V:4] _E,8 | 
[V:1] F4F4 | 
[V:2] A8 | 
[V:3] d8 | 
[V:4] D,8 | 
[V:1] A4G4 | 
[V:2] F4G4 | 
[V:3] c8 :
[V:4] z4E,4 | 
[V:1] F3GA2B2- | 
[V:2] A2d3ef2- | 
[V:3] d8 | 
[V:4] D,3E,F,2B,,2 | 
[V:1] B2AGA4 | 
[V:2] f2edc2f2- | 
[V:3] c8 :
[V:4] F,4F,4 | 
[V:1] B4z4 | 
[V:2] f2f2d2B2- | 
[V:3] B8 | 
[V:4] D,4z2G,2- | 
[V:1] z8 | 
[V:2] B2AGA4 | 
[V:3] c8 :
[V:4] G,2F,E,F,4 | 
[V:1] z8 | 
[V:2] G4z2g2- | 
[V:3] B4G4 | 
[V:4] G,4E,4 | 
[V:1] z8 | 
[V:2] g2^fe^f4 | 
[V:3] A8 | 
[V:4] D,8 | 
[V:1] B6AG | 
[V:2] g6fe | 
[V:3] [M:2/1]z8 | 
[V:4] G,,8 | 
[V:1] F4G4 | 
[V:2] d4B4 | 
[V:3] z8 | 
[V:4] D,4E,4 | 
[V:1] A2B3AGF | 
[V:2] A2d3cBA | 
[V:3] z8 | 
[V:4] F,2D,2G,4 | 
[V:1] G4A4 | 
[V:2] B4A2F2- | 
[V:3] B4d4 | 
[V:4] G,4D,4 | 
[V:1] z2A2F2B2- | 
[V:2] FGA2B3A/G/ | 
[V:3] c4d4 | 
[V:4] F,4D,2B,,2 | 
[V:1] B2A2B2G2 | 
[V:2] F2f4e2 | 
[V:3] c4B4 | 
[V:4] F,4G,4 | 
[V:1] AGFED2G2- | 
[V:2] f4z2c2 | 
[V:3] c4B2G2 | 
[V:4] F,4G,2E,2 | 
[V:1] G2F2G4 | 
[V:2] d4B4 | 
[V:3] A4G4- | 
[V:4] D,4_E,4 | 
[V:1] _E8 | 
[V:2] c8 | 
[V:3] G8- | 
[V:4] C,8 | 
[V:1] D8 ||  
[V:2] B8 ||  
[V:3] G8 ||  
[V:4] G,,8 ||  
[V:1]  [K:F] [K:clef=treble][M:2/1]F8 | 
[V:2]  [K:F] [K:clef=treble-8][M:2/1]A8 | 
[V:3]  [K:F] [K:clef=treble-8][M:2/1]z8 :
[V:4]  [K:F] [K:clef=bass][M:2/1]D,8 | 
[V:1] F8 | 
[V:2] A8 | 
[V:3] z8 :
[V:4] D,8 | 
[V:1] F8 | 
[V:2] A8 | 
[V:3] z8 | 
[V:4] D,8 | 
[V:1] !fermata!D8 | 
[V:2] !fermata!B8 | 
[V:3] z8 :
[V:4] !fermata!G,,8 | 
[V:1] F4F2F2 | 
[V:2] A4A2A2 | 
[V:3] z8 :
[V:4] D,4D,2D,2 | 
[V:1] G2G2A4 | 
[V:2] B2B2c4 | 
[V:3] z8 | 
[V:4] G,2G,2F,4 | 
[V:1] F4B4 | 
[V:2] d4d4 | 
[V:3] z8 :
[V:4] D,4G,4 | 
[V:1] B2B2A4 | 
[V:2] d2d2d4 | 
[V:3] z8 :
[V:4] G,2G,2F,4 | 
[V:1] G4c4 | 
[V:2] e4f4 | 
[V:3] z8 | 
[V:4] E,4A,4 | 
[V:1] B4A4 | 
[V:2] g4c4 | 
[V:3] z8 :
[V:4] G,4F,4 | 
[V:1] d4c4 | 
[V:2] B4A4 | 
[V:3] z8 :
[V:4] G,4C,4 | 
[V:1] B4A2G2 | 
[V:2] B4c2c2 | 
[V:3] z8 | 
[V:4] G,4F,2E,2 | 
[V:1] F4c4 | 
[V:2] d4c4 | 
[V:3] z8 :
[V:4] D,4A,4 | 
[V:1] B2A4G2 | 
[V:2] d4c2B2 | 
[V:3] z8 :
[V:4] D,2F,4G,2 | 
[V:1] F2G4^F2 | 
[V:2] A2G2A4 | 
[V:3] z8 | 
[V:4] D,2E,2D,4 | 
[V:1] G8 | 
[V:2] G6A2 | 
[V:3] z8 :
[V:4] _E,4z2E,2- | 
[V:1] z4B4- | 
[V:2] B2c2d4 | 
[V:3] z8 :
[V:4] E,2D,C,B,,4 | 
[V:1] B4B4 | 
[V:2] e4d2g2- | 
[V:3] z8 | 
[V:4] G,,4G,4- | 
[V:1] B4B4 | 
[V:2] gfede4 | 
[V:3] z8 :
[V:4] G,8 | 
[V:1] A4z2A2 | 
[V:2] f4z2f2 | 
[V:3] z8 :
[V:4] F,4z2F,2 | 
[V:1] B2G2A4 | 
[V:2] d2e2c4 | 
[V:3] z8 | 
[V:4] G,2E,2F,4 | 
[V:1] F4z2B2- | 
[V:2] d4z2d2- | 
[V:3] z8 :
[V:4] D,6B,,2 | 
[V:1] B2AGB2A2- | 
[V:2] d2c2d3c | 
[V:3] z8 :
[V:4] _E,4D,2F,2- | 
[V:1] A2G4^F2 | 
[V:2] B2G2A4 | 
[V:3] z8 | 
[V:4] F,2E,2D,4 | 
[V:1] G8 | 
[V:2] G8 | 
[V:3] B8- :
[V:4] G,,8 | 
[V:1] z4G4 | 
[V:2] d8 | 
[V:3] B8- :
[V:4] z4G,4 | 
[V:1] G8 | 
[V:2] _e8 | 
[V:3] B8 | 
[V:4] _E,4E,4 | 
[V:1] F4B4- | 
[V:2] f4g4- | 
[V:3] d8- :
[V:4] D,4G,,4- | 
[V:1] B2B2B4 | 
[V:2] g2g2g4 | 
[V:3] d8- :
[V:4] G,,2G,,2G,,4 | 
[V:1] A4B4 | 
[V:2] f4g4 | 
[V:3] d8 | 
[V:4] D,4B,,4 | 
[V:1] c6c2 | 
[V:2] e6e2 | 
[V:3] c8- :
[V:4] A,,4A,4 | 
[V:1] A4G4 | 
[V:2] f4g2fe | 
[V:3] c8- :
[V:4] F,4E,4- | 
[V:1] z4G4 | 
[V:2] c2BAG4 | 
[V:3] c8 | 
[V:4] E,4E,4 | 
[V:1] F3GA2B2- | 
[V:2] A2d3ef2 | 
[V:3] d8- :
[V:4] D,8 | 
[V:1] B2AGA2d2- | 
[V:2] g4a4 | 
[V:3] d8- :
[V:4] G,4F,4 | 
[V:1] dc=BA=B4 | 
[V:2] g8 | 
[V:3] d8 | 
[V:4] G,8 | 
[V:1] c8 | 
[V:2] e8 | 
[V:3] c8- :
[V:4] C,8 | 
[V:1] z4G4 | 
[V:2] z4e4 | 
[V:3] c8- :
[V:4] z4E,4 | 
[V:1] G4A4 | 
[V:2] g4f4 | 
[V:3] c8 | 
[V:4] E,4F,4 | 
[V:1] B8 | 
[V:2] d8 | 
[V:3] B8- :
[V:4] G,8 | 
[V:1] G8 | 
[V:2] e8 | 
[V:3] B8- :
[V:4] E,8 | 
[V:1] F8 | 
[V:2] f2d3cBA | 
[V:3] B8 | 
[V:4] D,8 | 
[V:1] z4E4 | 
[V:2] A4G4 | 
[V:3] c8- :
[V:4] z4C,4 | 
[V:1] E8 | 
[V:2] G8 | 
[V:3] c8- :
[V:4] C,8 | 
[V:1] E4E2E2 | 
[V:2] G4A2A2 | 
[V:3] c8 | 
[V:4] C,4C,2C,2 | 
[V:1] D2D2F4 | 
[V:2] B2B2d4 | 
[V:3] B8 :
[V:4] G,2G,2D,4 | 
[V:1] G2B3AG2- | 
[V:2] B4B4 | 
[V:3] G8- :
[V:4] _E,6D,2 | 
[V:1] G2FED4 | 
[V:2] c4d2B2 | 
[V:3] G8 | 
[V:4] C,4B,,4 | 
[V:1] C6D2 | 
[V:2] c4z4 | 
[V:3] A8- :
[V:4] A,,6B,,2 | 
[V:1] E2F2E2A2- | 
[V:2] c2F2c4 | 
[V:3] A8- :
[V:4] C,2D,2C,2F,2- | 
[V:1] AG^FEF4 | 
[V:2] d8 | 
[V:3] A8 | 
[V:4] F,E,D,C,D,4 | 
[V:1] G8 | 
[V:2] B6c2 | 
[V:3] [M:4/2]z8 :
[V:4] _E,6D,C, | 
[V:1] z8 | 
[V:2] d2_e4dc | 
[V:3] z8 | 
[V:4] B,,2C,4B,,A,, | 
[V:1] d8 | 
[V:2] B2B3cde | 
[V:3] z8 :
[V:4] G,,2G,4F,E, | 
[V:1] d8 | 
[V:2] fedcB4 | 
[V:3] z8 | 
[V:4] D,4G,4 | 
[V:1] c4c4 | 
[V:2] c3de2f2 | 
[V:3] z8 :
[V:4] A,4A,4 | 
[V:1] B8 | 
[V:2] g3f/e/d4 | 
[V:3] z8 | 
[V:4] G,8 | 
[V:1] c4c4 | 
[V:2] c4A2c2- | 
[V:3] z8 :
[V:4] C,8 | 
[V:1] c8 | 
[V:2] cBAGA4 | 
[V:3] z8 | 
[V:4] C,4C,4 | 
[V:1] d4d4 | 
[V:2] B8- | 
[V:3] z8 :
[V:4] B,,8 | 
[V:1] G8 | 
[V:2] B8 | 
[V:3] z8 | 
[V:4] _E,8 | 
[V:1] z4G4 | 
[V:2] c8 | 
[V:3] z8 :
[V:4] _E,8 | 
[V:1] A8 | 
[V:2] A3Bc2d2- | 
[V:3] z8 | 
[V:4] F,8 | 
[V:1] A4A4 | 
[V:2] d2cBA2c2- | 
[V:3] z8 :
[V:4] D,4F,4 | 
[V:1] G8 | 
[V:2] c2BAGABc | 
[V:3] z8 | 
[V:4] _E,8 | 
[V:1] F4D4 | 
[V:2] d2B4AG | 
[V:3] z8 :
[V:4] D,4B,,4 | 
[V:1] _E8 | 
[V:2] A2B4A2 | 
[V:3] z8 | 
[V:4] C,8 | 
[V:1] D8 | 
[V:2] B8 | 
[V:3] B8- :
[V:4] B,,8 | 
[V:1] z4F4- | 
[V:2] z4B4- | 
[V:3] B8 | 
[V:4] z4B,,4- | 
[V:1] F4F4 | 
[V:2] B4B4 | 
[V:3] d8- :
[V:4] B,,4B,,4 | 
[V:1] F8 | 
[V:2] F4B4 | 
[V:3] d8 | 
[V:4] B,,8 | 
[V:1] z8 | 
[V:2] A8 | 
[V:3] c8- :
[V:4] C,8 | 
[V:1] G8 | 
[V:2] G8 | 
[V:3] c8 | 
[V:4] _E,8 | 
[V:1] F4F4 | 
[V:2] A8 | 
[V:3] d8- :
[V:4] D,8 | 
[V:1] B4A2B2 | 
[V:2] z8 | 
[V:3] d8 | 
[V:4] z8 | 
[V:1] c3BAGc2- | 
[V:2] z8 | 
[V:3] c8- :
[V:4] z8 | 
[V:1] cBAGA4 | 
[V:2] z4f4 | 
[V:3] c8 | 
[V:4] z4F,4 | 
[V:1] B8 | 
[V:2] d6d2 | 
[V:3] B8- :
[V:4] G,6G,2 | 
[V:1] z8 | 
[V:2] d8 | 
[V:3] B8 | 
[V:4] G,8 | 
[V:1] z8 | 
[V:2] g8 | 
[V:3] c8- :
[V:4] E,8 | 
[V:1] z8 | 
[V:2] f8 | 
[V:3] c8 | 
[V:4] F,4F,4 | 
[V:1] d4d2B2- | 
[V:2] d8 | 
[V:3] B8 :
[V:4] G,8 | 
[V:1] B2B2B4 | 
[V:2] z8 | 
[V:3] G8 | 
[V:4] z8 | 
[V:1] A3Bc2A2- | 
[V:2] z8 | 
[V:3] A8- :
[V:4] z8 | 
[V:1] AG^FEF4 | 
[V:2] d8 | 
[V:3] A8 | 
[V:4] D,8 | 
[V:1] G8 | 
[V:2] B4B4 | 
[V:3] [M:2/1]z8 | 
[V:4] _E,4E,4 | 
[V:1] z8 | 
[V:2] c8 | 
[V:3] z8 | 
[V:4] _E,8 | 
[V:1] z8 | 
[V:2] _e8 | 
[V:3] z8 | 
[V:4] C,8 | 
[V:1] z8 | 
[V:2] d4d2d2- | 
[V:3] z8 | 
[V:4] F,4F,2F,2- | 
[V:1] z8 | 
[V:2] d2c4=B2 | 
[V:3] z8 | 
[V:4] F,2E,2D,4 | 
[V:1] z8 | 
[V:2] c4B2A2- | 
[V:3] z8 | 
[V:4] C,4D,4 | 
[V:1] z8 | 
[V:2] AGFED2G2- | 
[V:3] z8 | 
[V:4] C,4B,,4 | 
[V:1] z8 | 
[V:2] G2^FE^F4 | 
[V:3] z8 | 
[V:4] A,,8 | 
[V:1] B8 | 
[V:2] G8 | 
[V:3] B8 | 
[V:4] G,,8 | 
[V:1] A4B4 | 
[V:2] F4G4 | 
[V:3] d8 | 
[V:4] z8 | 
[V:1] c8 | 
[V:2] A8 | 
[V:3] c8 | 
[V:4] A,,8 | 
[V:1] F8 | 
[V:2] D4F4 | 
[V:3] d8 | 
[V:4] B,,4D,4 | 
[V:1] G4A4 | 
[V:2] E2G2F2A2 | 
[V:3] c8 | 
[V:4] E,4F,4 | 
[V:1] B3AG2F2 | 
[V:2] G4z2A2 | 
[V:3] B8 | 
[V:4] G,3F,E,2D,2 | 
[V:1] E3FG2A2 | 
[V:2] c3de2c2 | 
[V:3] c8 | 
[V:4] C,6B,,A,, | 
[V:1] B2G4FE | 
[V:2] d4d2d2- | 
[V:3] B4G4 | 
[V:4] G,,8 | 
[V:1] F2G4^F2 | 
[V:2] d2cBA2d2 | 
[V:3] A8 | 
[V:4] D,8 | 
[V:1] G8 | 
[V:2] B4c4- | 
[V:3] z8 | 
[V:4] z4_E,4- | 
[V:1] z8 | 
[V:2] c2c2c2c2 | 
[V:3] z8 | 
[V:4] E,2_E,2E,2E,2 | 
[V:1] z8 | 
[V:2] B4c4 | 
[V:3] z8 | 
[V:4] _E,4C,4 | 
[V:1] z8 | 
[V:2] F3GAFB2- | 
[V:3] z8 | 
[V:4] D,8 | 
[V:1] z8 | 
[V:2] B2A2B2d2- | 
[V:3] z8 | 
[V:4] C,4B,,3C, | 
[V:1] z8 | 
[V:2] dcd2e2f2- | 
[V:3] z8 | 
[V:4] D,_E,F,2G,2A,2- | 
[V:1] z8 | 
[V:2] fedcB2A2- | 
[V:3] z8 | 
[V:4] A,G,F,_E,D,2C,2 | 
[V:1] z8 | 
[V:2] A2d4c2 | 
[V:3] z8 | 
[V:4] F,4_E,4 | 
[V:1] [M:3/3](3:2:2F4G8 | 
[V:2] [M:3/3](3:2:2d4G8 | 
[V:3] [M:3/3](3:2:1B12 | 
[V:4] [M:3/3](3:2:2D,4_E,8 | 
[V:1] (3F4A4B4 | 
[V:2] (3A4F4G4 | 
[V:3] (3:2:1d12 | 
[V:4] D,4(3:2:2C,2B,,4 | 
[V:1] (3:2:4c6B AG4 | 
[V:2] (3A6B2c4 | 
[V:3] (3:2:1c12 | 
[V:4] (3A,,4C,4_E,4 | 
[V:1] (3:2:1F12 | 
[V:2] (3F4B4A4 | 
[V:3] (3:2:1d12 | 
[V:4] (3:2:2D,8D,4 | 
[V:1] (3:2:2G8A4 | 
[V:2] (3G4g4f4 | 
[V:3] (3:2:1c12 | 
[V:4] (3:2:2_E,8F,4 | 
[V:1] (3:2:4B6A2G2F2 | 
[V:2] (3:2:2d8d4 | 
[V:3] (3:2:1B12 | 
[V:4] (3:2:4G,6F,2E,2D,2 | 
[V:1] (3:2:5E4A2G2F2E2 | 
[V:2] (3G4c4A4 | 
[V:3] (3:2:1c12 | 
[V:4] (3:2:2C,8C,4 | 
[V:1] (3:2:2D4G8 | 
[V:2] (3d4B4e4 | 
[V:3] (3:2:2B4G8 | 
[V:4] (3:2:2D,4E,8 | 
[V:1] (3:2:2E4^F8 | 
[V:2] (3:2:2e4d8 | 
[V:3] (3:2:1A12 | 
[V:4] (3:2:2C,4D,8 | 
[V:1] [M:2/1]G4z4 | 
[V:2] [M:2/1]B4z4 | 
[V:3] [M:2/1]G8- | 
[V:4] [M:2/1]G,,8 | 
[V:1] B6AG | 
[V:2] d6cB | 
[V:3] G8 | 
[V:4] z8 | 
[V:1] B2A4G2 | 
[V:2] d2c2B4 | 
[V:3] z8 | 
[V:4] z8 | 
[V:1] A4z2G2 | 
[V:2] A2F2G4 | 
[V:3] z4B4 | 
[V:4] D,4E,4 | 
[V:1] F4G4 | 
[V:2] A2A4G2 | 
[V:3] d4c4 | 
[V:4] D,4E,4 | 
[V:1] F3GA2A2 | 
[V:2] ABcde2f2 | 
[V:3] d4c4 | 
[V:4] D,3C,/B,,/A,,4 | 
[V:1] B2G2AGFE | 
[V:2] g2d2e2f2 | 
[V:3] B4c4 | 
[V:4] G,,2G,4F,2 | 
[V:1] D2G4^F2 | 
[V:2] B2c2d4 | 
[V:3] B2G2A4 | 
[V:4] G,2E,2D,4 | 
[V:1] G8 ||  
[V:2] d8 ||  
[V:3] G8 ||  
[V:4] G,,8 ||  
[V:1]  [K:F] [K:clef=treble][M:2/1]F8- | 
[V:2]  [K:F] [K:clef=treble-8][M:2/1]d8- | 
[V:3]  [K:F] [K:clef=treble-8][M:2/1]A8- | 
[V:4]  [K:F] [K:clef=bass][M:2/1]D,8- | 
[V:1] F4F4 | 
[V:2] d4d4 | 
[V:3] A4A4 | 
[V:4] D,4D,4 | 
[V:1] F4F4 | 
[V:2] d4d4 | 
[V:3] A4A4 | 
[V:4] D,4D,4 | 
[V:1] F8 | 
[V:2] d8 | 
[V:3] A8 | 
[V:4] D,8 | 
[V:1] E8 | 
[V:2] G8 | 
[V:3] c8 | 
[V:4] C,8 | 
[V:1] F8 | 
[V:2] F8 | 
[V:3] A8 | 
[V:4] D,8 | 
[V:1] D4G4- | 
[V:2] G8 | 
[V:3] B8 | 
[V:4] B,,4E,4 | 
[V:1] G2F2F4- | 
[V:2] A4B4 | 
[V:3] A4F4 | 
[V:4] F,4D,4 | 
[V:1] F4E4 | 
[V:2] c8 | 
[V:3] G8 | 
[V:4] C,8 | 
[V:1] F8 | 
[V:2] A8 | 
[V:3] F8- | 
[V:4] D,8 | 
[V:1] !fermata!D8 | 
[V:2] !fermata!B8 | 
[V:3] !fermata!F8 | 
[V:4] !fermata!B,,8 | 
[V:1] G4G4- | 
[V:2] d4d4- | 
[V:3] B4B4- | 
[V:4] G,,4G,,4- | 
[V:1] G4G4 | 
[V:2] d4d4 | 
[V:3] B4B4 | 
[V:4] G,,4G,,4 | 
[V:1] G8 | 
[V:2] d8 | 
[V:3] B8 | 
[V:4] G,,8 | 
[V:1] F8 | 
[V:2] d8 | 
[V:3] A4A4 | 
[V:4] D,8 | 
[V:1] G8- | 
[V:2] B8 | 
[V:3] G8- | 
[V:4] _E,8- | 
[V:1] G8 | 
[V:2] c8 | 
[V:3] G8 | 
[V:4] E,8 | 
[V:1] !fermata!F8 | 
[V:2] !fermata!d8 | 
[V:3] !fermata!A8 | 
[V:4] !fermata!D,8 | 
[V:1] z8 | 
[V:2] z8 | 
[V:3] z4B4 | 
[V:4] F,4G,4 | 
[V:1] z8 | 
[V:2] z8 | 
[V:3] c4d4 | 
[V:4] A,4F,2G,2 | 
[V:1] z8 | 
[V:2] z8 | 
[V:3] c4B2A2- | 
[V:4] E,2F,2D,2C,2- | 
[V:1] z8 | 
[V:2] z8 | 
[V:3] A2G4^F2 | 
[V:4] C,2B,,2A,,4 | 
[V:1] z8 | 
[V:2] z8 | 
[V:3] G3ABcd2- | 
[V:4] G,,4G,4 | 
[V:1] z8 | 
[V:2] z8 | 
[V:3] d2c4=B2 | 
[V:4] F,2E,2D,4 | 
[V:1] z8 | 
[V:2] z8 | 
[V:3] c4z4 | 
[V:4] C,4z4 | 
[V:1] G8 | 
[V:2] G8 | 
[V:3] c8 | 
[V:4] E,8 | 
[V:1] F4B4- | 
[V:2] A4B4- | 
[V:3] d6B2 | 
[V:4] D,4G,4- | 
[V:1] B2A2G4 | 
[V:2] B4e4 | 
[V:3] B4c4 | 
[V:4] G,4C,4 | 
[V:1] G4^F4 | 
[V:2] d8 | 
[V:3] A8 | 
[V:4] D,8 | 
[V:1] G8 | 
[V:2] B8 | 
[V:3] !fermata!G8- | 
[V:4] _E,8 | 
[V:1] !fermata!E8 | 
[V:2] !fermata!c8 | 
[V:3] G8 | 
[V:4] !fermata!C,8 | 
[V:1] G8 | 
[V:2] d8 | 
[V:3] B8 | 
[V:4] G,,8 | 
[V:1] G4F4 | 
[V:2] d8 | 
[V:3] B4A4 | 
[V:4] G,,4D,4 | 
[V:1] G8 | 
[V:2] B4c4 | 
[V:3] G8 | 
[V:4] _E,8 | 
[V:1] A6GF | 
[V:2] A6B2 | 
[V:3] F8 | 
[V:4] D,8 | 
[V:1] E4F4- | 
[V:2] c4c4 | 
[V:3] G4A4 | 
[V:4] C,4A,,4 | 
[V:1] F2E2D4- | 
[V:2] G8 | 
[V:3] D8 | 
[V:4] B,,8 | 
[V:1] D4^C4 | 
[V:2] A8 | 
[V:3] E8 | 
[V:4] A,,8 | 
[V:1] D8 | 
[V:2] F8 | 
[V:3] D8- | 
[V:4] B,,8 | 
[V:1] !fermata!B,8 | 
[V:2] !fermata!G8 | 
[V:3] !fermata!D8 | 
[V:4] !fermata!G,,8 | 
[V:1] !fermata!_E8 | 
[V:2] !fermata!B8 | 
[V:3] !fermata!G8 | 
[V:4] !fermata!G,,8 | 
[V:1] !fermata!F8 | 
[V:2] !fermata!A8 | 
[V:3] !fermata!F8 | 
[V:4] !fermata!D,8 | 
[V:1] B4A4 | 
[V:2] d4d4 | 
[V:3] z8 | 
[V:4] G,,4D,4 | 
[V:1] G4c4 | 
[V:2] G4F2f2- | 
[V:3] B4A4 | 
[V:4] E,4F,4 | 
[V:1] B2B2A4 | 
[V:2] f2e2f4 | 
[V:3] G4c4 | 
[V:4] G,2G,2F,4 | 
[V:1] d4c4 | 
[V:2] f4f4 | 
[V:3] B2B2A4 | 
[V:4] B,,4F,4 | 
[V:1] B2G2A4 | 
[V:2] B4c2A2 | 
[V:3] d4c4 | 
[V:4] G,4C,4 | 
[V:1] G4F4 | 
[V:2] B2c2d4 | 
[V:3] B2G2A4 | 
[V:4] E,4D,4 | 
[V:1] G4A4 | 
[V:2] B2c2A4 | 
[V:3] G4F4 | 
[V:4] E,4D,4 | 
[V:1] B6AG | 
[V:2] d8 | 
[V:3] G4B4 | 
[V:4] G,,8 | 
[V:1] !fermata!F8 | 
[V:2] !fermata!d8 | 
[V:3] !fermata!A8 | 
[V:4] !fermata!D,8 | 
[V:1] G8- | 
[V:2] B8 | 
[V:3] G8- | 
[V:4] _E,6D,C, | 
[V:1] G8- | 
[V:2] z4_e4 | 
[V:3] G8- | 
[V:4] _E,3D,C,B,,C,2 | 
[V:1] G8- | 
[V:2] d2_e4dc | 
[V:3] G8- | 
[V:4] B,,2C,4B,,A,, | 
[V:1] G8 |]  
[V:2] d8 |]  
[V:3] G8 |]  
[V:4] G,,8 |]  



% FRACTION = 0.9375BUT SHOULD BE 0
% FRACTION = 0.9375BUT SHOULD BE 0
